X:1
T:[ID 1-29b]
T:[ID 1-29b]
T:Bezeichnung standardisiert: Polonaise oder Spazier-Tanz Polonoise (Primo und Secondo) In dieser Quelle auch als: Polon\"aise In dieser Quelle auch als: Polonese In dieser Quelle auch als: Polonoise oder Spatzier Tantz
T:Urheber unbekannt Erstbeleg: vor 1767 (Datum in der schriftlichen Quelle) Datum in der hier transkribierten schriftlichen Quelle: 1767
C:Urheber unbekannt
C:Erstbeleg: vor 1767 (Datum in der schriftlichen Quelle)
C:Datum in der hier transkribierten schriftlichen Quelle: 1767
%%score 1 2
L:1/8
M:3/4
K:D
V:1 treble nm="Primo"
V:2 treble nm="Secondo"
V:1
 FF/E/ FdFd | EE/D/ EcEc | FF/E/ FdFd | GG/F/ F2 E2 :: a>g fa ag/f/ | g>f eg gf/e/ | %6
 ff/e/ dd/c/ Bg | f/e/d/c/ d2 D2 :| %8
V:2
 !fermata!DD/C/ DFDF | CC/B,/ C"^[sic]"cC"^[sic]"c | DD/C/ DFDF | EE/D/ D2 C2 :: f>e df fe/d/ | %5
 e>d ce ed/c/ | AA/G/ FF/E/ Ge | A/G/F/E/ F2 F2 :| %8

